X: 140047
T: The MUNSTER BUTTER MILK
Q: "Irish Jig."
R: Jig.
%R: jig
B: James Kerr "Merry Melodies" v.1 p.40 s.0 #47
Z: 2016 John Chambers <jc:trillian.mit.edu>
M: 6/8
L: 1/8
%%slurgraces yes
%%graceslurs yes
K: D
|:\
vd2ve fdB | vd2ve fdB | AFE EFE | AFE EFA |\
d2e fdB | d2e fdB | AFD DFD | AFD DFD :|\
BcB {c}BAF | ABc dcB | AFE EFE | AFE EFA |
BcB BAF | ABc dcB | AFD DFD | AFD DFD ::\
gbg faf | gfe dcB | AFE EFE | AFE EFA |\
gbg faf | gfe dcB | AFD DFD | AFD DFD :|

%%sep 1 1 500
%%sep 1 1 500

